X:462
T: ES LIESS SICH EIN BAUR EIN PALTROCK SCHNEIDN
N: E1717
O: Europa, Mitteleuropa, Deutschland
R: Spott - Lied auf betruegerische Schneider
M: 4/4
L: 1/4
K: F
F | ccdd | ccA
F | ccdd | ccA
c | BAGc | BAG
B | A2G2 | F2z

@@@ Tune index: 5146
